docs/img/note.svg

<svg width="53" height="53" viewBox="0 0 53 53" fill="none" xmlns="http://www.w3.org/2000/svg">
<path fill-rule="evenodd" clip-rule="evenodd" d="M29.15 39.75V23.85H23.85V39.75H29.15ZM0 26.5C0 41.075 11.925 53 26.5 53C41.075 53 53 41.075 53 26.5C53 11.925 41.075 0 26.5 0C11.925 0 0 11.925 0 26.5ZM5.3 26.5C5.3 14.84 14.84 5.3 26.5 5.3C38.16 5.3 47.7 14.84 47.7 26.5C47.7 38.16 38.16 47.7 26.5 47.7C14.84 47.7 5.3 38.16 5.3 26.5ZM29.15 18.55V13.25H23.85V18.55H29.15Z" fill="#DFD7EE"/>
</svg>

<svg width="53" height="53" viewBox="0 0 53 53" fill="none" xmlns="http://www.w3.org/2000/svg"><path fill-rule="evenodd" clip-rule="evenodd" d="M29.15 39.75v-15.9h-5.3v15.9h5.3zM0 26.5C0 41.075 11.925 53 26.5 53S53 41.075 53 26.5 41.075 0 26.5 0 0 11.925 0 26.5zm5.3 0c0-11.66 9.54-21.2 21.2-21.2s21.2 9.54 21.2 21.2-9.54 21.2-21.2 21.2S5.3 38.16 5.3 26.5zm23.85-7.95v-5.3h-5.3v5.3h5.3z" fill="#DFD7EE"/></svg>
